X:205
T:Miss Davisons Fancy
O:No 205 Page 101 William Clarke of Feltwell
M:6/8
L:1/8
K:D
d2d dfd|cBc ABc|d2d def|gfg edc|d2d dfd|cBc ABc|dAF GEC|D3D2z::DEDD2F|EFE Eef|gfd cBc|dAG FGE|DEDD2F|EFE Eef|ged cBc|dAFD2z:|

